X:1
T:Gaberlunzie Man, The
M:3/4
L:1/8
R:Air
Q:"Slow"
B:Oswald – Caledonian Pocket Companion, Book V  (1760, p. 13)
Z:AK/Fiddler’s Companion
K:Emin
T(e>d)|B2e2 (e/f/g)|{f}e4 d>e|f2 (a<f)(e<d)|{f}e4 (d>B)|A>B d2d2|
d3e fe|d>edBAG|TF3E (F/E/D)|E2 e2 (e/f/g)|{f}e4d2|e2f2a2|
b4 (a/b/d')|f2 (gf)(ed)|B2 b2 (ag)|Tf2 e2 e>f|e4:|
|:d2|e>f g2G2|g4 d2|gfgab^c'|d'4 {b}a>g|f2 (gf)(ed)|d4 A2|
(d^cd)efg a4 d'c'|b2 (c'b)(ab)|g4 d2|(gfg)ab^c'|d'3 b a>g|
f2 (gf)(ed) B2 b2 (ag)|Tf2 e2 (e>f)|e4:||:d2 |B2 e2 (g/f/b/g/)|
{f}e4 (d>e)|(3fga (ba)(gf)|Te3 (d/e/) (f/e/d/B/)|A>B d2|
d3e (fe)|(d/e/f/e/ d/B/A/B/ d/A/B/d/)|{G}F3E (F/E/D)|E2 (eB) (gf)|
{f}Te4 d2|e2 (3fef (3afa|b3 d'/^c'/ (3bag|(f<a) (d<f) (A<d)|
B2 b>fa>d|{de}f2 e2 (e>f)|e4:||:d2 |(efg)GBd|(g/f/g/a/) gG Bd|
(g/f/g/a/) (g/d/e/f/) (g/a/b/^c/)|d'2 (3d'=c'b (3abg|fd' (a<f) (g<e)|d4 A2|
d(e/^c/) (de)(fg)|a4 (d'=c')|b>a d'(c'/b/) (d'/c'/b/a/)|(g/f/g/a/) gGBd|(gfg)abc'|
{bc'}d'2 (c'b)(ag)|f2 (3agf (3fed|B2 b>a (b/a/b/d')|Tf2 e2 e>f|e4:|]

